!!!OTL: Zank-Duett (111), S. 265
!!!id: T0274
**kern
*clefG2
*k[]
*C:
{8g
=1
4cc
8b
8a
=2
4g
8cc
8e
=3
8g
8e
8c}
=4
{8c
=5
8e
8g
8c
8cc
=6yy
8b
8a
8c
=7
4dd
8cc
8a
=8
4g}
8r
=9
{8c
=10
8e
8g
8c
8cc
=11yy
8b
8a
8c
=12
4g
8a
8b
=13
4cc}
8r
==
*-
!!!minrhy: 8
!!!meters: 2/4 ]  ZZ[3
!!!cut: Zank-Duett (111), S. 265
!!!reg: Luxemburg
!!!trd: Singendes Volk, Esch-Alzette 1937 posth.
!!!rhy1: X  X_XX  X_XX  XXX
!!!rhy2: X  XX(XXX)  X_XX  X_0
!!!key: T0274  08  C 2/4 ]  ZZ[3
!!!mod: SECHSTONSKALA DUR ?]  AMBITUS[9
!!!kad: 15+1
!!!akz: +155_3+25_35+1_
!!!fot: 'a__b__c__
!!!for: 'a__b__b__
!!!fok: '^d_^a_~a_
!! PHRAS[AUFTAKTIG]
!!!fkt: Liebeslieder
!!!bem: StraPen, fff Witry, 6.12.1932
!! THILL, Mathias:
!! PR[45] 2K[0] 2G[4] 3K[4] 3G[4] 4A[3] 4Ü[0] 5A[0] 6K[0] 6G[3]
!! 7K[0] 7G[0] 8A[0] MEHR[0] SI[19] ABS[69] SR[4] SP[14]
!! ST[28] 2k[6] 2g[28] 3k[1] 3g[0] 4d[1] 4ü[0] 5d[0] 6k[0] 6g[0]
!! 7k[0] 7g[0] 8d[0] mehr[0] si[36] dm[-17] sr[33] sp[3]
!! 1F[58] 2F[42] 3F[0] 4F[0] LF[0] 2P[0] 3P[0] 4P[0] TRI[0] DF[2] AB[79]
!! TF[0] U3K[0] U3[0] U4[0] U4Ü[0] U5[1] U6K[0] U6[0] U7K[0] U7[0]
!! N1[19] N2K[0] N2[14] N3K[0] N3[26] N4[9] N4Ü[0] N5[20] N6K[0] N6[11]
!!!n7k: 0] N7[0] O1[0] O2K[0] O2[0] O3K[0] O3[0] HÖ[0
